X: 21131
T: THE CONDOR VALSE 1.
C: Composed by J. Davidson, Violinist
%: Bowing and Fingering arranged by W. B. Laybourn.
R: waltz
B: K\"ohler's Violin Repository, v.2, 1885 p.113 #1
F: http://www.archive.org/details/klersviolinrepos02rugg
Z: 2012 John Chambers <jc:trillian.mit.edu>
M: 3/4
L: 1/8
K: Eb
|:\
(vB,2G,2B,2) | (E2F2G2) | (F2=E2F2) | (c4B2) |\
(F2B3=A) | (B4E2) | (D2A3G) | (G4F2) |
(vB,2G,2B,2) | (E2F2G2) | (F2=E2F2) | (d4c2) |\
B2=A2_A2 | G2B,2C2 | (D2G3F) | E4z2 :|
|: (F4G2) | (A2G2F2) | (E4G2) | B6 |\
(D4F2) | B6 | (E3GBe) | (d4c2) |
(F4G2) | (A2G2F2) | (E4G2) | B6 |\
(D3FBe) | .c2z2.c2 | .B2z2D2 | E2z2z2 :|

%%sep 2 1 500

